packages/bezier-icons/icons/plus.svg

<svg width="24" height="24" viewBox="0 0 24 24" fill="none" xmlns="http://www.w3.org/2000/svg">
<path d="M12 3C11.4477 3 11 3.44772 11 4V11H4C3.44772 11 3 11.4477 3 12C3 12.5523 3.44772 13 4 13H11V20C11 20.5523 11.4477 21 12 21C12.5523 21 13 20.5523 13 20V13H20C20.5523 13 21 12.5523 21 12C21 11.4477 20.5523 11 20 11H13V4C13 3.44772 12.5523 3 12 3Z" fill="#313234"/>
</svg>

<svg xmlns="http://www.w3.org/2000/svg" width="24" height="24" fill="none" viewBox="0 0 24 24"><path fill="#313234" d="M12 3a1 1 0 0 0-1 1v7H4a1 1 0 1 0 0 2h7v7a1 1 0 1 0 2 0v-7h7a1 1 0 1 0 0-2h-7V4a1 1 0 0 0-1-1"/></svg>
